assets/roadmap/rightRoad.svg

<svg width="185" height="188" viewBox="0 0 185 188" fill="none" xmlns="http://www.w3.org/2000/svg">
<path d="M1.09531e-06 120C47 120 48 156 100 156" stroke="#E9E9E9" stroke-width="3" stroke-dasharray="8 8"/>
<path d="M106 156C116.112 156 126.125 154.008 135.467 150.139C144.809 146.269 153.297 140.597 160.447 133.447C167.597 126.297 173.269 117.809 177.139 108.467C181.008 99.1246 183 89.1118 183 79C183 68.8882 181.008 58.8755 177.139 49.5334C173.269 40.1913 167.597 31.7029 160.447 24.5528C153.297 17.4027 144.809 11.7309 135.467 7.86128C126.125 3.99167 116.112 2 106 2" stroke="#E9E9E9" stroke-width="3" stroke-dasharray="8 8"/>
</svg>

<?xml version="1.0" encoding="UTF-8"?>
<svg fill="none" viewBox="0 0 185 188" xmlns="http://www.w3.org/2000/svg">
<path d="m1.0953e-6 120c47 0 48 36 100 36" stroke="#E9E9E9" stroke-dasharray="8 8" stroke-width="3"/>
<path d="m106 156c10.112 0 20.125-1.992 29.467-5.861 9.342-3.87 17.83-9.542 24.98-16.692s12.822-15.638 16.692-24.98c3.869-9.3424 5.861-19.355 5.861-29.467s-1.992-20.124-5.861-29.467c-3.87-9.3421-9.542-17.83-16.692-24.981s-15.638-12.822-24.98-16.692c-9.342-3.8696-19.355-5.8613-29.467-5.8613" stroke="#E9E9E9" stroke-dasharray="8 8" stroke-width="3"/>
</svg>
